X:1
T:Bremerhaven
T:Bremerhaven
T:10 10. 10 10. 10 10.
T:©2014 Thurlow Weed
C:Thurlow Weed
Z:Geneva Psalter
Z:©2014 Thurlow Weed
%%score { ( 1 2 ) | ( 3 4 ) }
L:1/8
Q:1/4=75
M:4/4
K:Gmin
V:1 treble nm="MusicXML Part"
V:2 treble 
V:3 bass 
V:4 bass 
V:1
 G4 G2 A2 | B4 B4 | A2 G2 G2 ^F2 | G8 | G4 A2 B2 | c4 B4 | A2 d2 d2 ^c2 | d8 | B4 B2 A2 | G4 c4 | %10
 B2 G2 A2 F2 | (=E4 D4) | D4 G2 G2 | ^F4 G4 | c2 B2 A2 G2 | A8 | d4 c2 B2 | A4 c4 | B2 A2 G2 ^F2 | %19
 G8 | d4 c2 B2 | A4 B4 | A2 G2 G2 ^F2 | G8 |] %24
V:2
 D4 E2 ^F2 | D4 D4 | D2 B,C D2 DC | D8 | E4 D2 G2 | (EFG)A G4 | D2 F2 =E2 AG | ^F8 | D4 G2 ^F2 | %9
 E4 G4 | G2 D2 E2 D2 | (D2 ^C2) A,4 | B,4 B,2 C2 | D4 D4 | E^F G2 E2 B,C | (D6 E)^F | G4 E2 D2 | %17
 D4 (G2 A2) | G2 E2 D2 D2 | D8 | G4 E2 D2 | D4 D4 | DC B,2 E2 DC | =B,8 |] %24
V:3
 B,4 B,2 D2 | (G,2 A,2) B,4 | ^F,2 G,A, B,2 A,2 | B,8 | B,4 ^F,2 D2 | C4 D4 | A,2 A,2 B,2 =E2 | %7
 D8 | B,4 D2 DC | B,4 E4 | D2 B,2 A,2 A,2 | (A,3 G,) F,4 | F,4 G,2 G,2 | A,4 B,4 | C2 D2 C2 G,2 | %15
 ^F,8 | G,4 G,2 G,2 | ^F,4 (A,2 D2) | D2 C2 B,2 A,2 | B,8 | G,4 G,2 G,2 | ^F,4 G,4 | %22
 ^F,2 G,2 CB, A,2 | G,8 |] %24
V:4
 G,4 E,2 D,2 | G,4 G,4 | D,2 E,2 D,2 D,2 | G,,8 | E,4 D,2 G,2 | (C,D,E,)F, G,4 | %6
 F,2 D,2 G,,2 A,,2 | D,8 | G,4 G,2 D,2 | E,4 C,4 | G,2 B,,2 C,2 D,2 | A,,4 (D,2 C,2) | %12
 B,,4 E,2 E,2 | (D,2 C,2) B,,4 | A,,2 B,,2 C,2 E,2 | (D,2 E,2) (D,2 C,2) | B,,4 C,2 G,,2 | %17
 D,4 (E,2 ^F,2) | G,2 C,2 D,2 D,2 | (E,2 C,2) D,2 E,2 | B,,4 C,2 G,,2 | D,4 G,,A,,B,,C, | %22
 D,2 E,2 C,2 D,2 | G,,8 |] %24

